X:1
T:Là vèr l'aurora
T:Là vèr l'aurora
T:G. P. da Palestrina
T:materiale Fabrizio Barchi
T:materiale Fabrizio Barchi
T:materiale Fabrizio Barchi
T:materiale Fabrizio Barchi
C:G. P. da Palestrina
Z:materiale Fabrizio Barchi
%%score [ 1 2 3 4 ]
L:1/8
Q:1/4=124
M:2/2
K:C
V:1 treble nm="Soprano" snm="S"
V:2 treble nm="Alto" snm="A"
V:3 treble-8 nm="Tenore" snm="T"
V:4 bass nm="Basso" snm="B"
V:1
 A8 | B2 B2 c4 | c2 c4 c2 | _B2 A2 d4- | d2 c2 z2 f2- | f2 e2 d2 c2 | _B4 A4 | c4 c2 cd- | %8
w: Là|ver’ l’au- ro-|ra, che sí|dol- ce l’au-|* ra, che|_ sí dol- ce|l’au- ra|al tem- po no-|
 dd e2 c2 c2 | c B2 B A2 c2- | cc c2 B4 | A4 z2 d2 | d2 d2 e4- | e2 c2 f3 e | d2 c2 B4 | A4 z2 A2 | %16
w: * vo suol al tem-|po no- vo suol mo-|* ver i fio-|ri, e|gli^au- gel- let-|* ti^in- co- min-|ciar lor ver-|si, e|
 A2 A2 B4 | G4 c3 B | A2 c2 B2 A2- | A2 ^G2 A4- | A8 | z2 A4 d2- | d2 ^c2 d2 A2 | d2 d2 e2 d2 | %24
w: gli^au- gel- let-|ti^in- co- min-|ciar lor ver- *|* * si,|_|sí dol-|* ce- men- te^i|pen- sier’ den- tro^a|
 c4 B2 d2- | dd d2 e4 | c2 c3 c c2 | d4 c4 | d2 e2 f2 e2- | ed d4 ^c2 | d4 z2 d2 | c2 _B2 A4 | %32
w: l’al- ma mo-|* ver mi sen-|to mo- ver mi|sen- to^a|chi gl^ha tut- ti^in|_ _ _ for-|za, che|ri- tor- nar|
 z2 d2 c2 _B2 | A2 G2 A4 | c4 c2 _B2 | A4 A4 | z2 d2 c2 _B2 | A4 z2 d2 | c2 _B2 A2 G2 | A4 c4 | %40
w: che ri- tor-|nar con- vien-|mi^al- le mie|no- te.|che ri- tor-|nar che|ri- tor- nar con-|vien- mi^al-|
 c2 _B2 A4 | A8 |] %42
w: le mie no-|te.|
V:2
 E8 | G2 G2 G4 | A2 A4 G2 | F2 E2 D4 | A4 F4 | D2 E2 F4 | G4 C4 | z2 A2 G2 AB- | BB c2 G2 A2 | %9
w: Là|ver’ l’au- ro-|ra, che sí|dol- ce l’au-|ra, che|sí dol- ce|l’au- ra|al tem- po no-|* vo suol al tem-|
 A G2 G E2 A2- | AA A2 G4 | ^F2 A2 A2 A2 | B4 G4 | c3 B A3 G | F2 A4 ^G2 | A2 F2 F2 E2 | %16
w: po no- vo suol mo-|* ver i fio-|ri, e gli^au- gel-|let- ti^in-|co- min- ciar lor|ver- * *|si, e gli^au- gel-|
 F4 D2 G2- | GFED C2 A,2 | A,2 A2 GFED | E4 C2 E2 | F2 E2 F4- | F2 E2 F4 | E2 E2 F2 D2 | %23
w: let- ti^in- co-|* * * * * min-|ciar lor ver- * * *|* si, sí|dol- ce- men-|* te si|dol- ce- men- te^i|
 F2 F2 E^F G2- | G2 ^F2 G2 B2- | BB B2 c4 | A2 A3 A A2 | _B4 A4 | G2 G2 F2 G2 | _B4 A4 | %30
w: pen- sier’ den- tro^a l’al-|* * ma mo-|* ver mi sen-|to mo- ver mi|sen- to^a|chi gl^ha tut- ti^in|for- za,|
 z2 A2 A2 G2 | A2 D2 D2 ^C2 | D2 A2 A2 G2 | F E2 D2 C/B,/ C2 | A,2 A2 G3 F | E4 D2 A2 | %36
w: che ri- tor-|nar che ri- tor-|nar che ri- tor-|nar con- vien- * * *|mi al- le mie|no- te che|
 A2 G2 A2 D2 | D2 ^C2 D2 A2 | A2 G2 F E2 D- | DC/B,/ C2 A,2 A2 | G3 F ED E2 | ^F8 |] %42
w: ri- tor- nar che|ri- tor- nar che|ri- tor- nar con- vien-|* * * * mi al-|le mie no- * *|te|
V:3
 ^c8 | d2 d2 e4 | f3 e/d/ c4 | z2 a4 g2 | f2 e2 d3 e | f2 g3 f f2- | f2 e2 f4 | z2 f2 e2 cg- | %8
w: Là|ver’ l’au- ro-|ra, _ _ _|che sí|dol- ce l’au- *||* * ra,|al tem- po no-|
 gg g2 e2 e2 | f d2 d c2 e2- | ee f2 d4 | d2 ^f2 f2 f2 | g4 e2 c2- | c2 f3 e d2- | d2 A2 e3 d | %15
w: * vo suol al tem-|po no- vo suol mo-|* ver i fio-|ri, e gli^au- gel-|let- ti in-|* co- min- ciar|_ lor ver- *|
 ^c2 d2 A4 | z2 d2 d2 d2 | e6 c2 | f3 e d2 c2 | B4 A4 | z2 A2 d4- | d2 ^c2 d4 | A2 a2 agfe | %23
w: * * si,|e gli^au- gel-|let- ti^in-|co- min- ciar lor|ver- si,|si dol-|* ce- men-|te i pen- * * *|
 d2 f2 g2 g2 | c4 d2 g2- | gg g2 c4 | f2 f3 f f2 | f4 f4 | z2 c2 d2 e2 | f2 g2 e4 | d2 f2 e2 d2 | %31
w: * sier’ den- tro^a|l’al- ma mo-|* ver mi sen-|to mo- ver mi|sen- to|a chi gl'ha|tut- ti^in for-|za, che ri- tor-|
 e2 g2 f2 e2 | d2 f2 f2 d2 | c2 d2 e4 | f4 e2 dd- | d^c/B/ c2 d2 f2 | e2 d2 e2 g2 | f2 e2 d2 f2 | %38
w: nar che ri- tor-|nar che ri- tor-|nar con- vien-|mi^al- le mie no-|* * * * te. che|ri- tor- nar che|ri- tor- nar che|
 f2 d2 c2 d2 | e4 f4 | e2 d2 ^c d2 c | d8 |] %42
w: ri- tor- nar con-|vien- mi^al-|le mie no- * *|te.|
V:4
 A,8 | G,2 G,2 C4 | F,2 F4 E2 | D2 C2 _B,4 | A,4 z2 D2- | D2 C2 _B,2 A,2 | G,4 F,4 | %7
w: Là|ver’ l’au- ro-|ra, che sí|dol- ce l’au-|ra, che|_ sí dol- ce|l’au- ra|
 z2 F,2 C2 A,G,- | G,G, C2 C2 A,2 | F, G,2 G, A,2 A,2- | A,A, F,2 G,4 | D,2 D2 D2 D2 | %12
w: al tem- po no-|* vo suol al tem-|po no- vo suol mo-|* ver i fio-|ri, e gli^au- gel-|
 G,2 G,2 C3 B, | A,4 z4 | z8 | z2 D2 D2 ^C2 | D4 G,4 | C3 B, A,4 | F,4 G,2 A,2 | E,4 z2 A,2 | %20
w: let- ti^in- co- min-|ciar||e gli^au- gel-|let- ti^in-|co- min- ciar|lor ver- *|si, sí|
 D2 ^C2 D2 D,E, | F,G, A,2 D,4 | z2 A,2 D4- | D2 D2 C2 B,2 | A,4 G,4- | G,4 z4 | F,4 F,2 F,2 | %27
w: dol- ce- men- * *|* * * te|i pen-|* sier’ den- tro^a|l’al- ma|_|mo- ver mi|
 _B,4 F,2 F2- | F2 E2 D2 C2 | _B,2 G,2 A,4 | D,2 D2 C2 _B,2 | A,2 G,2 A,4 | D,2 D,2 F,2 G,2 | %33
w: sen- to^a chi|_ gl^ha tut- ti^in|for- * *|za, che ri- tor-|nar con- vien-|mi che ri- tor-|
 A,2 _B,2 A,4 | F,4 C2 G,2 | A,4 D,2 D2 | C2 _B,2 A,2 G,2 | A,4 D,2 D,2 | F,2 G,2 A,2 _B,2 | %39
w: nar con- vien-|mi^al- le mie|no- te. che|ri- tor- nar con-|vien- mi che|ri- tor- nar con-|
 A,2 A,2 F,G,A,B, | C2 G,2 A,4 | D,8 |] %42
w: vien- mi^al- le _ _ _|_ mie no-|te.|

